images/photoshop.svg

<?xml version="1.0" encoding="iso-8859-1"?>
<!-- Generator: Adobe Illustrator 19.0.0, SVG Export Plug-In . SVG Version: 6.00 Build 0)  -->
<svg version="1.1" id="Capa_1" xmlns="http://www.w3.org/2000/svg" xmlns:xlink="http://www.w3.org/1999/xlink" x="0px" y="0px"
	 viewBox="0 0 512 512" style="enable-background:new 0 0 512 512;" xml:space="preserve">
<g>
	<g>
		<path d="M0,0v512h512V0H0z M482,482H30V30h452V482z"/>
	</g>
</g>
<g>
	<g>
		<path d="M213.102,181.6h-72.24V352h33.12v-57.12h40.32c29.531,0,53.04-25.713,53.04-56.64
			C267.342,212,246.166,181.6,213.102,181.6z M212.382,265.84h-38.4v-55.2h36.96c14.057,0,22.8,13.2,22.8,27.6
			C233.742,255,224,265.84,212.382,265.84z"/>
	</g>
</g>
<g>
	<g>
		<path d="M336.939,276.64c-4.642-1.118-24.72-4.39-24.72-15.84c0-9.175,7.531-14.16,19.2-14.16c15.831,0,30.079,9.12,36.48,13.92
			l12.96-19.44c-6.881-6.079-21.609-17.28-49.2-17.28c-26.284,0-49.44,14.91-49.44,41.52c0,27.64,36.72,32.801,44.88,35.04
			c9.757,2.723,27.6,6.225,27.6,17.04c0,8.81-8.449,13.92-20.64,13.92c-18.809,0-36.48-11.119-44.16-16.56l-12,20.16
			c7.2,6.24,27.851,19.44,56.88,19.44c15.679,0,50.88-4.9,50.88-39.84C385.659,285,345.579,278.882,336.939,276.64z"/>
	</g>
</g>
<g>
</g>
<g>
</g>
<g>
</g>
<g>
</g>
<g>
</g>
<g>
</g>
<g>
</g>
<g>
</g>
<g>
</g>
<g>
</g>
<g>
</g>
<g>
</g>
<g>
</g>
<g>
</g>
<g>
</g>
</svg>

<svg id="Capa_1" data-name="Capa 1" xmlns="http://www.w3.org/2000/svg" viewBox="0 0 512 512"><defs><style>.cls-1{fill:#707070;}</style></defs><path class="cls-1" d="M0,0V512H512V0ZM482,482H30V30H482Z" transform="translate(0 0)"/><path class="cls-1" d="M213.1,181.6H140.86V352H174V294.88H214.3c29.53,0,53-25.71,53-56.64C267.34,212,246.17,181.6,213.1,181.6Zm-.72,84.24H174v-55.2h37c14.06,0,22.8,13.2,22.8,27.6C233.74,255,224,265.84,212.38,265.84Z" transform="translate(0 0)"/><path class="cls-1" d="M336.94,276.64c-4.64-1.12-24.72-4.39-24.72-15.84,0-9.17,7.53-14.16,19.2-14.16,15.83,0,30.08,9.12,36.48,13.92l13-19.44c-6.88-6.08-21.61-17.28-49.2-17.28-26.28,0-49.44,14.91-49.44,41.52,0,27.64,36.72,32.8,44.88,35,9.76,2.72,27.6,6.23,27.6,17,0,8.81-8.45,13.92-20.64,13.92-18.81,0-36.48-11.12-44.16-16.56L277.9,335c7.2,6.24,27.85,19.44,56.88,19.44,15.68,0,50.88-4.9,50.88-39.84C385.66,285,345.58,278.88,336.94,276.64Z" transform="translate(0 0)"/></svg>
